X:1
T:ASF Brindisi
T: Libiamo ne lieti calici 
T:Fra La Traviata
T:Giuseppe Verdi
C:Giuseppe Verdi
%%score [ 1 2 3 ( 4 5 ) ]
L:1/8
Q:1/4=100
M:3/8
K:Bb
V:1 treble nm="Sopran"
V:2 treble nm="Alt"
V:3 treble-8 nm="Tenor"
V:4 bass nm="Bass"
V:5 bass 
V:1
"^Frisk" z"^A" (!>!d2- | df) e | .d (d/^c/d/e/) | .c (c/=B/c/d/) | .B !>!d2- | d f e | %6
w: Ah!|_ _ li-|biam a- * * *|mor fra' _ _ _|ca- li-|* ci più|
 .d (d/^c/d/e/) | .c (c/=B/c/d/) | B2 z || z"^B" B2- | B2 B, | G3- | G .B, .G | .G .B, .G | %14
w: cal- di _ _ _|ba- ci~a _ _ _|vrà.|Ah!|_ go-|dia-|* mo, la|taz- za, la|
 G ^F G | B3- | B _A G | .F (F/=E/) (F/G/) | .F (F/=E/) (F/G/) | (F2 E) | B, z B, | G3- | %22
w: taz- za~e il|can-|* ti- co|la not- * te~ab- *|bel- la _ e~il _|ri- *|so, in|que-|
 G .B, .G | (.G.B,) .G | (G^F) G | !>!c3- | c B _A | .G (G/^F/) (G/_A/) | .F (F/=E/F/G/) | E2 z || %30
w: * sto, in|que- * sto|pa- * ra-|di-|* so ne|sco- pra _ il _|nuo- vo _ _ _|dì.|
"^C" .F .F .F | .F .F .F | .F .F .F | .F .F .F | .F .F .F | .F .F .F | .F .F .F | .F .F .F | %38
w: Ah sì, go-|dia- mo, go-|dia- mo, go-|dia- mo, la|taz- za e~il|can- ti- co,|la not- te~ab-|bel- la e~il|
 .F .F .F | .F .F .F | .F .F .F | .F .F .F | .F z .F | .F z .F | .F .F .F | .F .F .F | .F .F .F | %47
w: ri- so, go-|dia- mo, go-|dia- mo, go-|dia- mo, in|que- sto|pa- ra-|di- so, ne|sco- pra, ne|sco- pra il|
 .F z .F | .F z .^G | .A z .A | .B z .c | .d z .A | .B z .^G | .A z .A | .B z .c | .d z .A | %56
w: nuo- vo|dì, ne|sco- pra~il|nuo- vo~il|nuo- vo|dì, ne|sco- pra~il|nuo- vo~il|nuo- vo|
 .[Bd] .[Ac] .[Bd] | .[Ac] .[Bd] .[Ac] | .[Bd] .[Ac] .[Bd] | .[Ac] .[Bd] .[Ac] | [Bd-]3 | [Bd-]3 | %62
w: dì, sì, ne|sco- pra, ne|sco- pra il|nuo- * vo|dì!|_|
 ([Bd]3 | [Bd-]3) | [Bd] z2 |] %65
w: |||
V:2
 z (!>!B2- | B_A) G | .F (F/=E/F/G/) | ._E (E/D/E/F/) | .D !>!B2- | B _A G | .F (F/=E/F/G/) | %7
w: Ah!|_ _ li-|biam a- * * *|mor fra' _ _ _|ca- li-|* ci più|cal- di _ _ _|
 ._E (E/D/E/F/) | D2 z || z B2- | B2 B, | G3- | G .B, .G | .G .B, .G | G ^F G | B3- | B _A G | %17
w: ba- ci~a _ _ _|vrà.|Ah!|_ go-|dia-|* mo, la|taz- za, la|taz- za~e il|can-|* ti- co|
 .F (F/=E/) (F/G/) | .F (F/=E/) (F/G/) | (F2 E) | B, z B, | G3- | G .B, .G | (.G.B,) .G | (G^F) G | %25
w: la not- * te~ab- *|bel- la _ e~il _|ri- *|so, in|que-|* sto, in|que- * sto|pa- * ra-|
 !>!c3- | c B _A | .G (G/^F/) (G/_A/) | .F (F/=E/F/G/) | E2 z || .F .F .F | .F .F .F | .F .F .F | %33
w: di-|* so ne|sco- pra _ il _|nuo- vo _ _ _|dì.|Ah sì, go-|dia- mo, go-|dia- mo, go-|
 .F .F .F | .F .F .F | .F .F .F | .F .F .F | .F .F .F | .F .F .F | .F .F .F | .F .F .F | .F .F .F | %42
w: dia- mo, la|taz- za e~il|can- ti- co,|la not- te~ab-|bel- la e~il|ri- so, go-|dia- mo, go-|dia- mo, go-|dia- mo, in|
 .F z .F | .F z .F | .F .F .F | .F .F .F | .F .F .F | .F z .F | .F z .^G | .A z .A | .B z .G | %51
w: que- sto|pa- ra-|di- so, ne|sco- pra, ne|sco- pra il|nuo- vo|dì, ne|sco- pra~il|nuo- vo~il|
 .F z .F | .F z .^G | .A z .A | .B z .G | .F z .F | .F .F .F | .F .F .F | .F .F .F | .F .F .F | %60
w: nuo- vo|dì, ne|sco- pra~il|nuo- vo~il|nuo- vo|dì, sì, ne|sco- pra, ne|sco- pra il|nuo- * vo|
 F3- | F3- | (F3 | F3-) | F z2 |] %65
w: dì!|_||||
V:3
 z (!>!d2- | df) e | .d (d/^c/d/e/) | .c (c/=B/c/d/) | .B !>!d2- | d f e | .d (d/^c/d/e/) | %7
w: Ah!|_ _ li-|biam a- * * *|mor fra' _ _ _|ca- li-|* ci più|cal- di _ _ _|
 .c (c/=B/c/d/) | B2 z || z B2- | B2 B, | G3- | G .B, .G | .G .B, .G | G ^F G | B3- | B _A G | %17
w: ba- ci~a _ _ _|vrà.|Ah!|_ go-|dia-|* mo, la|taz- za, la|taz- za~e il|can-|* ti- co|
 .F (F/=E/) (F/G/) | .F (F/=E/) (F/G/) | (F2 E) | B, z B, | G3- | G .B, .G | (.G.B,) .G | (G^F) G | %25
w: la not- * te~ab- *|bel- la _ e~il _|ri- *|so, in|que-|* sto, in|que- * sto|pa- * ra-|
 !>!c3- | c B _A | .G (G/^F/) (G/_A/) | .F (F/=E/F/G/) | E2 z || .[Bd] .[Bd] .[Bd] | %31
w: di-|* so ne|sco- pra _ il _|nuo- vo _ _ _|dì.|Ah sì, go-|
 .[Bd] .[Bd] .[Bd] | .[Bd] .[Bd] .[Bd] | .[Bd] .[Bd] .[Bd] | .[Bd] .[Bd] .[Bd] | %35
w: dia- mo, go-|dia- mo, go-|dia- mo, la|taz- za e~il|
 .[Bd] .[Bd] .[Bd] | .[Ae] .[Ae] .[Ae] | .[Ae] .[Ae] .[Ae] | .[Bd] .[Bd] .[Bd] | %39
w: can- ti- co,|la not- te~ab-|bel- la e~il|ri- so, go-|
 .[Bd] .[Bd] .[Bd] | .[Bd] .[Bd] .[Bd] | .[Bd] .[Bd] .[Bd] | .[Bd] z .[Bd] | .[Bd] z .[Bd] | %44
w: dia- mo, go-|dia- mo, go-|dia- mo, in|que- sto|pa- ra-|
 .[Bd] .[Bd] .[Bd] | .[Bd] .[Bd] .[Bd] | .[Bd] .[Bd] .[Bd] | .[Ae] z .[Ae] | .[Bd] z .[=Bd] | %49
w: di- so, ne|sco- pra, ne|sco- pra il|nuo- vo|dì, ne|
 .[ce] z .A | .B z .[Gc] | .[Bd] z .[Ac] | .[Bd] z .[=Bd] | .[ce] z .A | .B z .[Gc] | .[Fd] z .A | %56
w: sco- pra~il|nuo- vo~il|nuo- vo|dì, ne|sco- pra~il|nuo- vo~il|nuo- vo|
 .[Bd] .[Ac] .[Bd] | .[Ac] .[Bd] .[Ac] | .[Bd] .[Ac] .[Bd] | .[Ac] .[Bd] .[Ac] | [d-f]3 | [d-f]3 | %62
w: dì, sì, ne|sco- pra, ne|sco- pra il|nuo- * vo|dì!|_|
 ([df]3 | [d-f]3) | [df] z2 |] %65
w: |||
V:4
 z (!>!B,2- | B,_A,) G, | .F, (F,/=E,/F,/G,/) | .E, (E,/D,/E,/F,/) | .D, !>!B,2- | B, _A, G, | %6
w: Ah!|_ _ li-|biam a- * * *|mor fra' _ _ _|ca- li-|* ci più|
 .F, (F,/=E,/F,/G,/) | .E, (E,/D,/E,/F,/) | D,2 z || z B,2- | B,2 B,, | G,3- | G, .B,, .G, | %13
w: cal- di _ _ _|ba- ci~a _ _ _|vrà.|Ah!|_ go-|dia-|* mo, la|
 .G, .B,, .G, | G, ^F, G, | B,3- | B, _A, G, | .F, (F,/=E,/) (F,/G,/) | .F, (F,/=E,/) (F,/G,/) | %19
w: taz- za, la|taz- za~e il|can-|* ti- co|la not- * te~ab- *|bel- la _ e~il _|
 (F,2 E,) | B,, z B,, | G,3- | G, .B,, .G, | (.G,.B,,) .G, | (G,^F,) G, | !>!C3- | C B, _A, | %27
w: ri- *|so, in|que-|* sto, in|que- * sto|pa- * ra-|di-|* so ne|
 .G, (G,/^F,/) (G,/_A,/) | .F, (F,/=E,/F,/G,/) | E,2 z || .B, .F, .D, | .B, .F, .D, | .B, .F, .D, | %33
w: sco- pra _ il _|nuo- vo _ _ _|dì.|Ah sì, go-|dia- mo, go-|dia- mo, go-|
 .B, .F, .D, | .B, .F, .D, | .B, .F, .D, | .A, .F, .E, | .A, .F, .E, | .B, .F, .D, | .B, .F, .D, | %40
w: dia- mo, la|taz- za e~il|can- ti- co,|la not- te~ab-|bel- la e~il|ri- so, go-|dia- mo, go-|
 .B, .F, .D, | .B, .F, .D, | (.B,.F,) .D, | (.B,.F,) .D, | .F, .B, .D | .F, .B, .D | .F, .B, .D | %47
w: dia- mo, go-|dia- mo, in|que- * sto|pa- * ra-|di- so, ne|sco- pra, ne|sco- pra il|
 (.F,.A,) .F, | .B,, z .=B,, | .C, z .^C, | .D, z .E, | .F, z .F, | .B,, z .=B,, | .C, z .^C, | %54
w: nuo- * vo|dì, ne|sco- pra~il|nuo- vo~il|nuo- vo|dì, ne|sco- pra~il|
 .D, z .E, | .F, z .F, | .B, .F, .B, | .F, .B, .F, | .B, .F, .B, | (.F,.B,) .F, | B,3- | B,3- | %62
w: nuo- vo~il|nuo- vo|dì, sì, ne|sco- pra, ne|sco- pra il|nuo- * vo|dì!|_|
 B,3- | B,3- | B, z2 |] %65
w: |||
V:5
 x3 | x3 | x3 | x3 | x3 | x3 | x3 | x3 | x3 || x3 | x3 | x3 | x3 | x3 | x3 | x3 | x3 | x3 | x3 | %19
 x3 | x3 | x3 | x3 | x3 | x3 | x3 | x3 | x3 | x3 | x3 || x3 | x3 | x3 | x3 | x3 | x3 | x3 | x3 | %38
 x3 | x3 | x3 | x3 | x3 | x3 | x3 | x3 | x3 | x3 | x3 | x3 | x3 | x3 | x3 | x3 | x3 | x3 | x3 | %57
 x3 | x3 | x3 | B,,3- | B,,3- | B,,3- | B,,3- | B,, x2 |] %65

